svg/building/monument_line.svg

<?xml version="1.0" encoding="UTF-8"?>
<svg width="24px" height="24px" viewBox="0 0 24 24" version="1.1" xmlns="http://www.w3.org/2000/svg" xmlns:xlink="http://www.w3.org/1999/xlink">
    <title>monument_line</title>
    <g id="页面-1" stroke="none" stroke-width="1" fill="none" fill-rule="evenodd">
        <g id="Building" transform="translate(-768.000000, 0.000000)">
            <g id="monument_line" transform="translate(768.000000, 0.000000)">
                 <path d="M24,0 L24,24 L0,24 L0,0 L24,0 Z M12.5934901,23.257841 L12.5819402,23.2595131 L12.5108777,23.2950439 L12.4918791,23.2987469 L12.4918791,23.2987469 L12.4767152,23.2950439 L12.4056548,23.2595131 C12.3958229,23.2563662 12.3870493,23.2590235 12.3821421,23.2649074 L12.3780323,23.275831 L12.360941,23.7031097 L12.3658947,23.7234994 L12.3769048,23.7357139 L12.4804777,23.8096931 L12.4953491,23.8136134 L12.4953491,23.8136134 L12.5071152,23.8096931 L12.6106902,23.7357139 L12.6232938,23.7196733 L12.6232938,23.7196733 L12.6266527,23.7031097 L12.609561,23.275831 C12.6075724,23.2657013 12.6010112,23.2592993 12.5934901,23.257841 L12.5934901,23.257841 Z M12.8583906,23.1452862 L12.8445485,23.1473072 L12.6598443,23.2396597 L12.6498822,23.2499052 L12.6498822,23.2499052 L12.6471943,23.2611114 L12.6650943,23.6906389 L12.6699349,23.7034178 L12.6699349,23.7034178 L12.678386,23.7104931 L12.8793402,23.8032389 C12.8914285,23.8068999 12.9022333,23.8029875 12.9078286,23.7952264 L12.9118235,23.7811639 L12.8776777,23.1665331 C12.8752882,23.1545897 12.8674102,23.1470016 12.8583906,23.1452862 L12.8583906,23.1452862 Z M12.1430473,23.1473072 C12.1332178,23.1423925 12.1221763,23.1452606 12.1156365,23.1525954 L12.1099173,23.1665331 L12.0757714,23.7811639 C12.0751323,23.7926639 12.0828099,23.8018602 12.0926481,23.8045676 L12.108256,23.8032389 L12.3092106,23.7104931 L12.3186497,23.7024347 L12.3186497,23.7024347 L12.3225043,23.6906389 L12.340401,23.2611114 L12.337245,23.2485176 L12.337245,23.2485176 L12.3277531,23.2396597 L12.1430473,23.1473072 Z" id="MingCute" fill-rule="nonzero"></path>
                <path d="M16,17 L16,5.23608 L16.8881,3.45986 C17.1997,2.83659 16.8015,2.09241 16.11,2.00598 L12.155,1.51161 C12.0521,1.49874 11.9479,1.49874 11.845,1.51161 L7.88999,2.00598 C7.19852,2.09241 6.80025,2.83657 7.11189,3.45986 L8,5.23608 L8,17 L6.25,17 C5.55964,17 5,17.5597 5,18.25 L5,20 L4,20 C3.44772,20 3,20.4477 3,21 C3,21.5523 3.44772,22 4,22 L20,22 C20.5523,22 21,21.5523 21,21 C21,20.4477 20.5523,20 20,20 L19,20 L19,18.25 C19,17.5597 18.4404,17 17.75,17 L16,17 Z M12,3.50779 L9.52652,3.81698 L9.78885,4.34165 C9.92771,4.61936 10,4.92558 10,5.23607 L10,17 L14,17 L14,5.23608 C14,4.92559 14.0723,4.61936 14.2111,4.34165 L14.4735,3.81698 L12,3.50779 Z M17,20 L17,19 L7,19 L7,20 L17,20 Z" id="形状" fill="#09244B"></path>
            </g>
        </g>
    </g>
</svg>

<svg xmlns="http://www.w3.org/2000/svg" width="24" height="24"><g fill="none" fill-rule="evenodd"><path d="M24 0v24H0V0h24ZM12.593 23.258l-.011.002-.071.035-.02.004-.014-.004-.071-.035c-.01-.004-.019-.001-.024.005l-.004.01-.017.428.005.02.01.013.104.074.015.004.012-.004.104-.074.012-.016.004-.017-.017-.427c-.002-.01-.009-.017-.017-.018Zm.265-.113-.013.002-.185.093-.01.01-.003.011.018.43.005.012.008.007.201.093c.012.004.023 0 .029-.008l.004-.014-.034-.614c-.003-.012-.01-.02-.02-.022Zm-.715.002a.023.023 0 0 0-.027.006l-.006.014-.034.614c0 .012.007.02.017.024l.015-.002.201-.093.01-.008.004-.011.017-.43-.003-.012-.01-.01-.184-.092Z"/><path fill="#09244B" d="M16 17V5.236l.888-1.776a1.01 1.01 0 0 0-.778-1.454l-3.955-.494a1.25 1.25 0 0 0-.31 0l-3.955.494a1.01 1.01 0 0 0-.778 1.454L8 5.236V17H6.25C5.56 17 5 17.56 5 18.25V20H4a1 1 0 1 0 0 2h16a1 1 0 1 0 0-2h-1v-1.75c0-.69-.56-1.25-1.25-1.25H16ZM12 3.508l-2.473.309.262.525a2 2 0 0 1 .211.894V17h4V5.236a2 2 0 0 1 .211-.894l.262-.525L12 3.507ZM17 20v-1H7v1h10Z"/></g></svg>
